X:149
T:Sleep on till day
T:Caidil gu la
R:Slow Air
S:Simon Fraser Collection
N:No.179
O:Scottish
M:3/4
L:1/8
Q:1/4=120
K:E_
G>A|B2G2E2|e3fg2|B2c2 [F2A2]|[E3G3] z G>A|B2G2E2|e3f g2|
B2G2[D2F2]|E3z||e>f|g2e2f2|e2G2A2|B2c2_d2|(c2B)ze>f|g2e2f2|
e2B2c2|[E2B2][D2A2][E2G2]|[D3F3] z||

